frontend/src/assets/img/rest-logo.svg

<svg xmlns="http://www.w3.org/2000/svg" xmlns:v="http://vecta.io" xmlns:xlink="http://www.w3.org/1999/xlink" viewBox="0 0 66 66" stroke="#000" stroke-linecap="round" stroke-linejoin="round" fill="#fff" fill-rule="evenodd" font-family="Roboto" font-size="14px" text-anchor="middle" width="300" height="300"><defs><style type="text/css"></style></defs><g><title>openapis-icon</title><use xlink:href="#SY-p_KXXTjAdSM7txgfghL.sym" x="0.5" y="0.5"></use></g><symbol id="SY-p_KXXTjAdSM7txgfghL.sym" overflow="visible" v:tags="openapi initiative, logo"><title>openapis-icon</title><g id="juhn1q3eis1" class="Group.cls" transform="translate(0 0)" v:abox="{&quot;x&quot;:0,&quot;y&quot;:0,&quot;width&quot;:64.00106430564927,&quot;height&quot;:64.00457000732428}" v:size="66,66,0.5,0.5"><g class="Prim.cls"><g id="juhn1q26ir5" transform="translate(0.02569580078125 36.79579162597659)" class=""><path d="M 16.8871459960938 0 L 0 0 L 0.0097045898438 0.2473983764648 L 0.0382690429688 0.7233428955078 L 0.0508422851563 0.9267501831055 L 0.0965576171875 1.4763946533203 L 0.1080017089844 1.599235534668 L 0.1737060546875 2.2077331542969 C 0.1749267578125 2.2274322509766 0.177001953125 2.2470703125 0.1799926757813 2.2665863037109 L 0.2656860351563 2.9202270507813 C 0.4610900878906 4.2743453979492 0.7513427734375 5.6079025268555 1.1398620605469 6.9186096191406 L 1.1455688476563 6.9357528686523 L 1.3472595214844 7.5870971679688 L 1.3587036132813 7.6230926513672 L 1.5444030761719 8.1761703491211 L 1.5935363769531 8.3155899047852 L 1.7672119140625 8.793815612793 L 1.8489379882813 9.0097885131836 L 2.0032043457031 9.4097442626953 L 2.1249084472656 9.7068481445313 L 2.2540283203125 10.0153884887695 L 2.4254455566406 10.3913421630859 L 2.5254211425781 10.6198806762695 L 2.7356872558594 11.0695495605469 L 2.8053894042969 11.2135314941406 L 3.0585021972656 11.7248916625977 L 3.0984802246094 11.8031692504883 L 3.4070434570313 12.3888168334961 L 3.4727478027344 12.5030899047852 L 17.9424438476563 3.7709808349609 C 17.3733825683594 2.5711212158203 17.0191345214844 1.2958450317383 16.8877258300781 0 Z M 0.7976379394531 7.7487945556641 L 0.8021850585938 7.7642211914063 L 1.3472595214844 7.5928192138672 Z" stroke="none" fill="#93d500" stroke-width="0.5713613161118207"></path></g><g id="juhn1q29ir6" transform="translate(9.122344970703125 44.55144500732425)" class=""><path d="M 11.9414367675781 0.001708984375 L 0 11.9374389648438 L 0.1845397949219 12.1077117919922 L 0.6947631835938 12.5602264404297 L 1.1004333496094 12.9041900634766 L 1.2101440429688 12.99560546875 L 1.674072265625 13.3692779541016 L 1.7340698242188 13.4167022705078 L 2.244873046875 13.8086547851563 C 2.2517700195313 13.8128051757813 2.2582702636719 13.8175811767578 2.2642822265625 13.8229370117188 L 4.48974609375 15.3273315429688 L 4.5697326660156 15.3759002685547 L 5.0079650878906 15.6347198486328 L 5.2765197753906 15.787841796875 L 5.5313415527344 15.9306945800781 L 5.9964294433594 16.1820831298828 L 6.0610046386719 16.2163696289063 L 7.3768310546875 16.8551483154297 L 13.8029174804688 1.2455673217773 C 13.1504516601563 0.8970336914063 12.5242309570313 0.4833679199219 11.9345703125 0 Z" stroke="none" fill="#4d5a31" stroke-width="0.5713613161118207"></path></g><g id="juhn1q2bir7" transform="translate(4.06463623046875 41.58436584472659)" class=""><path d="M 15.7604370117188 1.7843627929688 L 15.3890380859375 1.3472671508789 L 15.0805053710938 0.9490280151367 L 14.7502746582031 0.4816589355469 L 14.4417419433594 0 L 0 8.6989669799805 L 0.7439270019531 9.8674087524414 L 0.8039245605469 9.9553985595703 L 0.8073425292969 9.9611053466797 L 1.583251953125 11.0546951293945 L 1.6004028320313 11.0775527954102 L 1.6175231933594 11.1003952026367 L 1.9683532714844 11.557487487793 L 2.3894348144531 12.0802841186523 L 2.4797058105469 12.188850402832 L 2.8248291015625 12.5962295532227 L 2.976806640625 12.7687759399414 L 3.2761840820313 13.1115951538086 L 3.4458923339844 13.2955703735352 L 3.5230102539063 13.3789901733398 L 3.7515563964844 13.6189651489258 L 3.8429870605469 13.7126693725586 L 4.2429504394531 14.1217575073242 L 16.1558227539063 2.2088851928711 L 15.7655639648438 1.7917861938477 Z" stroke="none" fill="#6ba43a" stroke-width="0.5713613161118207"></path></g><g id="juhn1q2cir8" transform="translate(35.217529296875 44.54687500000003)" class=""><path d="M 0.3982543945313 0 L 0 0.3085327148438 L 0.0297241210938 0.3582458496094 L 8.7155456542969 14.7765426635742 L 9.9039916992188 13.9583511352539 C 10.743896484375 13.3384170532227 11.5580749511719 12.6670761108398 12.3419799804688 11.9431533813477 L 0.4450988769531 0.0474243164063 Z" stroke="none" fill="#4d5a31" stroke-width="0.5713613161118207"></path></g><g id="juhn1q2eir9" transform="translate(42.826934814453125 59.99819183349612)" class=""><path d="M 0.008544921875 0.0119934082031 L 0.0279846191406 0.0005645751953 L 0.0274047851563 0 L 0.008544921875 0.0114288330078 Z M 0 0.0177154541016 L 0.0005493164063 0.0177154541016 L 0.0005493164063 0.0177154541016 Z" stroke="none" fill="#93d500" stroke-width="0.5713613161118207"></path></g><g id="juhn1q2fira" transform="translate(42.82977294921875 59.93190765380862)" class=""><path d="M 0.0245666503906 0.0611419677734 L 0.1388549804688 0.0039978027344 L 0.1365661621094 0 L 0.0245666503906 0.0668487548828 Z M 0 0.0811309814453 L 0.0057067871094 0.0782775878906 Z" stroke="none" fill="#93d500" stroke-width="0.5713613161118207"></path></g><g id="juhn1q2girb" transform="translate(42.806365966796875 59.98047637939456)" class=""><path d="M 0.0205688476563 0.0354309082031 L 0.0211181640625 0.0354309082031 L 0 0 Z M 0.0291137695313 0.0297088623047 L 0.0485534667969 0.0194244384766 L 0.0291137695313 0.0297088623047 Z M 0.0177001953125 0.0354309082031 L 0.0119934082031 0.0382843017578 L 0.0177001953125 0.0359954833984 Z" stroke="none" fill="#93d500" stroke-width="0.5713613161118207"></path></g><g id="juhn1q2iirc" transform="translate(42.824066162109375 60.014762878418)" class=""><path d="M 0 0.0011444091797 L 0 0.001708984375 L 0.0028686523438 0 L 0.0022888183594 0 Z" stroke="none" fill="#93d500" stroke-width="0.5713613161118207"></path></g><g id="juhn1q2jird" transform="translate(42.814910888671875 59.93190765380862)" class=""><path d="M 0.0148620605469 0.0811309814453 L 0.0114440917969 0.0828552246094 L 0.02001953125 0.0771331787109 Z M 0.0400085449219 0.0679931640625 L 0.1531372070313 0.0039978027344 L 0.0400085449219 0.0679931640625 Z M 0.1531372070313 0.0039978027344 L 0.1508483886719 0 Z M 0 0.0897064208984 L 0.0011596679688 0.0897064208984 Z" stroke="none" fill="#93d500" stroke-width="0.5713613161118207"></path></g><g id="juhn1q2lire" transform="translate(42.816070556640625 60.01990509033206)" class=""><path d="M 0.00341796875 0 L 0 0.001708984375 L 0.00341796875 0 Z" stroke="none" fill="#93d500" stroke-width="0.5713613161118207"></path></g><g id="juhn1q2mirf" transform="translate(9.126922607421875 11.998718261718775)" class=""><path d="M 33.5440063476563 47.4435348510742 L 25.1415710449219 33.502326965332 L 24.6422119140625 33.7805786132813 L 24.1302795410156 34.0376892089844 C 22.5892944335938 34.7705459594727 20.9046630859375 35.1516952514648 19.1982727050781 35.153564453125 C 18.0873107910156 35.1534881591797 16.9822082519531 34.9922103881836 15.9175415039063 34.6747589111328 L 15.3775939941406 34.4850692749023 L 14.8382263183594 34.2936630249023 L 8.4241333007813 49.8718185424805 L 8.4709777832031 49.8889694213867 L 8.5201110839844 49.9078140258789 L 8.5206909179688 49.9078140258789 L 8.5332641601563 49.9135360717773 L 9.7645568847656 50.384895324707 C 11.6384887695313 51.046272277832 13.5763854980469 51.5100631713867 15.5467224121094 51.7687454223633 C 15.623779296875 51.7781448364258 15.7007141113281 51.7884292602539 15.7775573730469 51.7995986938477 L 16.4757385253906 51.8755874633789 L 16.5888671875 51.8852920532227 L 17.1488037109375 51.9321517944336 L 17.3390808105469 51.9435806274414 L 17.8293151855469 51.9721450805664 L 18.1298522949219 51.9835739135742 L 18.5195007324219 51.9972763061523 L 19.2154235839844 52.0058517456055 C 20.7915954589844 52.0058212280273 22.3650207519531 51.8747177124023 23.91943359375 51.613899230957 L 23.998291015625 51.6024703979492 L 24.491943359375 51.5127639770508 L 24.7776184082031 51.4584884643555 L 25.066162109375 51.3979263305664 L 25.5472412109375 51.2922286987305 L 25.6340942382813 51.2722244262695 C 27.9986877441406 50.720573425293 30.2830505371094 49.8688125610352 32.4315795898438 48.737663269043 L 32.4321594238281 48.7370986938477 L 32.8492431640625 48.5085525512695 L 33.6965637207031 48.030891418457 L 33.682861328125 47.9908981323242 L 33.7040100097656 48.0268936157227 L 33.7314147949219 48.0109024047852 L 33.8428344726563 47.9440536499023 Z M 11.9431457519531 14.7708282470703 L 12.3413696289063 14.4622955322266 L 12.3116760253906 14.4125823974609 L 3.6264038085938 0 L 2.4351196289063 0.8204803466797 C 1.59521484375 1.4386901855469 0.7821655273438 2.1100387573242 0 2.8328094482422 L 11.8968505859375 14.7239761352539 Z" stroke="none" fill="#93d500" stroke-width="0.5713613161118207"></path></g><g id="juhn1q2oirg" transform="translate(0 7.335273742675806)" class=""><path d="M 8.3024291992188 8.2824478149414 L 7.5116577148438 9.1080627441406 C 6.6329040527344 10.0593795776367 5.82958984375 11.0506896972656 5.1051025390625 12.0905685424805 L 5.0010986328125 12.2391204833984 L 4.7594299316406 12.5962219238281 L 4.5137329101563 12.9710388183594 L 4.4246215820313 13.1081619262695 C 1.7394714355469 17.3268203735352 0.2213439941406 22.1822128295898 0.0251159667969 27.179069519043 L 0.0097045898438 27.7504272460938 L 0 28.3217926025391 L 16.8482666015625 28.3217926025391 L 16.8757019042969 27.7504272460938 L 16.9071350097656 27.179069519043 C 17.1282043457031 24.9272384643555 18.012451171875 22.791633605957 19.4479675292969 21.0426559448242 C 19.562255859375 20.8963851928711 19.703369140625 20.7592620849609 19.8319396972656 20.6181335449219 C 19.9604797363281 20.4770050048828 20.0787658691406 20.3301620483398 20.2147521972656 20.1941833496094 Z M 43.0657653808594 4.1000823974609 L 42.9960327148438 4.0583801269531 L 42.5486755371094 3.7926940917969 L 42.2875671386719 3.6441421508789 L 42.0247192382813 3.4978713989258 L 41.5676574707031 3.2510452270508 L 41.4956665039063 3.2133331298828 C 40.5072021484375 2.6968231201172 39.4930419921875 2.2420196533203 38.4571533203125 1.8420639038086 L 38.3771667480469 1.8112106323242 L 37.6915283203125 1.5638122558594 C 35.8517456054688 0.9210357666016 33.9479675292969 0.4702301025391 32.0144958496094 0.2165451049805 L 31.7773742675781 0.1845474243164 L 31.5402526855469 0.1582641601563 L 31.0831604003906 0.1085586547852 L 30.9551696777344 0.0971298217773 L 30.4106750488281 0.0514221191406 L 29.7250366210938 0.0097122192383 L 29.4770812988281 0 L 29.4770812988281 16.8894271850586 C 30.3438415527344 16.979133605957 31.2025756835938 17.1636810302734 32.0356140136719 17.4465103149414 L 44.4695739746094 5.0234069824219 C 44.0096740722656 4.7019653320313 43.5401611328125 4.3944320678711 43.0617370605469 4.1012268066406 Z" stroke="none" fill="#4d5a31" stroke-width="0.5713613161118207"></path></g><g id="juhn1q2rirh" transform="translate(13.713226318359375 7.315820157053938)" class=""><path d="M 0.3028259277344 4.5572038297625 L 0.0079956054688 4.0675492887469 Z M 0 4.0658326749773 L 0.001708984375 4.068686068532 Z M 14.0588989257813 0.0120225553484 L 13.487548828125 0.0234513883562 C 12.2956848144531 0.0714479093523 11.1061096191406 0.1931443815203 9.9262390136719 0.3908372526141 L 9.8485412597656 0.4039750699969 L 9.3543090820313 0.4936814908953 L 9.0686340332031 0.5473924283953 L 8.7783813476563 0.6079545621844 L 8.2984313964844 0.713087618825 L 8.2110290527344 0.7325120573016 C 5.8462524414063 1.2847276334734 3.5617370605469 2.1368623380633 1.4129638671875 3.2682099943133 L 0.001708984375 4.0646882657976 L 0.00341796875 4.0675492887469 L 8.6995544433594 18.5058351163836 L 9.1989135742188 18.2275834684344 C 9.3671569824219 18.1373658781023 9.5376586914063 18.0514512662859 9.7102661132813 17.9699006681414 C 10.8974609375 17.4036622648211 12.1732788085938 17.046095431325 13.4818420410156 16.9128862028094 L 14.0531921386719 16.8671785001727 L 14.6245422363281 16.8477464323016 L 14.6251220703125 0.0000291471453 C 14.4342956542969 -0.0005430574445 14.2440185546875 0.0074525480242 14.0537719726563 0.0114503507586 Z" stroke="none" fill="#6ba43a" stroke-width="0.5713613161118207"></path></g><g id="juhn1q2siri" transform="translate(39.214202880859375 19.519546508789087)" class=""><path d="M 17.4367980957031 14.7451171875 L 17.4093627929688 14.2908782958984 L 17.39453125 14.0640487670898 L 17.3505249023438 13.530403137207 L 17.3390808105469 13.3921279907227 L 17.2762451171875 12.7962036132813 L 17.2705383300781 12.7482070922852 L 17.2676696777344 12.7253494262695 L 17.1819763183594 12.0831451416016 C 17.181396484375 12.0774307250977 17.1808471679688 12.0688552856445 17.1791076660156 12.0631484985352 C 16.9849853515625 10.7161026000977 16.6939697265625 9.3848114013672 16.308349609375 8.0796127319336 L 16.3003540039063 8.0544738769531 L 16.1129455566406 7.4471206665039 L 16.0872497558594 7.3671264648438 L 15.9044189453125 6.8220520019531 L 15.8529968261719 6.6746368408203 L 15.6815795898438 6.2044067382813 L 15.5958862304688 5.981575012207 L 15.4444580078125 5.5941925048828 L 15.3199157714844 5.2890853881836 L 15.1942138671875 4.9885559082031 L 15.0262145996094 4.6057434082031 L 14.9291076660156 4.3897705078125 L 14.7159729003906 3.9343948364258 L 14.6496887207031 3.7961196899414 L 14.3937377929688 3.2784729003906 L 14.3565979003906 3.2070465087891 L 14.0594787597656 2.6356887817383 C 14.0554809570313 2.6299743652344 14.0526123046875 2.6219787597656 14.0480651855469 2.6156921386719 C 13.5567016601563 1.7129364013672 13.0184631347656 0.8398971557617 12.4356689453125 0 L 0 12.4368133544922 C 0.280517578125 13.265998840332 0.4671630859375 14.1240234375 0.5565185546875 14.9947967529297 L 17.4459533691406 14.9947967529297 L 17.4367980957031 14.7451171875 Z" stroke="none" fill="#4d5a31" stroke-width="0.5713613161118207"></path></g><g id="juhn1q2uirj" transform="translate(36.471099853515625 35.65706634521487)" class=""><path d="M 3.3659057617188 0.0005722045898 L 3.3384704589844 0.5719299316406 L 3.3070373535156 1.1432952880859 C 3.0899353027344 3.3373184204102 2.2425842285156 5.4856414794922 0.7667541503906 7.2797088623047 C 0.6524963378906 7.4259796142578 0.5113830566406 7.563102722168 0.3828125 7.704231262207 C 0.2542724609375 7.8453598022461 0.135986328125 7.9921951293945 0 8.1281814575195 L 11.9128723144531 20.0410614013672 C 12.0482788085938 19.9056549072266 12.1757202148438 19.7656555175781 12.30712890625 19.6279602050781 L 12.7013549804688 19.2148742675781 C 13.5829772949219 18.2606964111328 14.3885803222656 17.2608184814453 15.1147766113281 16.2232284545898 L 15.1993408203125 16.1009521484375 L 15.4610290527344 15.7164306640625 L 15.6867065429688 15.3707504272461 L 15.8009948730469 15.2022018432617 C 18.5332336425781 10.9112777709961 19.9947814941406 6.0490036010742 20.19189453125 1.1427230834961 L 20.2073364257813 0.5713577270508 L 20.217041015625 0 L 3.3659057617188 0 Z" stroke="none" fill="#6ba43a" stroke-width="0.5713613161118207"></path></g><g id="juhn1q2wirk" transform="translate(20.45124053955078 2.4868995751603507e-14)" class=""><path d="M 41.2374496459961 2.3118667602539 C 38.1549606323242 -0.770622253418 33.1572494506836 -0.770622253418 30.0753402709961 2.3118667602539 C 27.6162033081055 4.7704315185547 27.1248397827148 8.4459991455078 28.5898056030273 11.3976516723633 L 11.3969955444336 28.5910491943359 C 8.4453353881836 27.1272201538086 4.7691879272461 27.6180191040039 2.3106307983398 30.0765838623047 C -0.7702102661133 33.1597595214844 -0.7702102661133 38.1560897827148 2.3106307983398 41.2392654418945 C 5.3940353393555 44.3203201293945 10.3908004760742 44.3200607299805 13.4738693237305 41.2386932373047 C 15.9324569702148 38.7801284790039 16.4232406616211 35.1045608520508 14.9594039916992 32.1523361206055 L 32.1516647338867 14.9600830078125 C 35.1039047241211 16.4239120483398 38.7794723510742 15.9331130981445 41.2374496459961 13.4745483398438 C 44.3205184936523 10.393196105957 44.3205184936523 5.3955001831055 41.2380294799805 2.3130111694336 Z" stroke="none" fill="#424143" stroke-width="0.5713613161118207"></path></g></g></g></symbol></svg>

<svg width="300" height="300" fill="#fff" fill-rule="evenodd" font-family="Roboto" font-size="14" stroke="#000" stroke-linecap="round" stroke-linejoin="round" text-anchor="middle" viewBox="0 0 66 66"
    xmlns="http://www.w3.org/2000/svg"
    xmlnsV="http://vecta.io"
    xmlnsXlink="http://www.w3.org/1999/xlink">
    <use x=".5" y=".5" xlinkHref="#a"/>
    <symbol id="a" overflow="visible" vTags="openapi initiative, logo">
        <g class="Group.cls" vAbox="{&quot;x&quot;:0,&quot;y&quot;:0,&quot;width&quot;:64.00106430564927,&quot;height&quot;:64.00457000732428}" vSize="66,66,0.5,0.5">
            <g class="Prim.cls" stroke="none" stroke-width=".571">
                <path transform="translate(.026 36.796)" d="M16.887 0H0l.01.247.028.476.013.204.046.55.011.122.066.609c0 .02.003.04.006.059l.086.653c.194 1.354.484 2.688.874 4l.006.017.201.651.012.036.185.553.05.14.173.478.082.216.154.4.122.297.129.308.171.376.1.229.21.45.07.144.254.51.04.08.308.585.066.114 14.47-8.732c-.57-1.2-.924-2.475-1.055-3.771ZM.797 7.749l.005.015.545-.171Z" fill="#93d500"/>
                <path transform="translate(9.122 44.551)" d="M11.941.002 0 11.937l.185.17.51.453.405.344.11.092.464.373.06.048.51.392a.13.13 0 0 1 .02.014l2.226 1.504.08.049.438.259.269.153.254.143.465.251.065.034 1.316.64 6.426-15.61A11.458 11.458 0 0 1 11.935 0Z" fill="#4d5a31"/>
                <path transform="translate(4.065 41.584)" d="m15.76 1.784-.371-.437-.308-.398-.33-.467L14.44 0 0 8.699l.744 1.168.06.088.003.006.776 1.094.017.023.018.022.35.457.421.523.09.109.346.407.152.173.3.343.169.184.077.083.229.24.091.094.4.409L16.156 2.209l-.39-.417Z" fill="#6ba43a"/>
                <path transform="translate(35.218 44.547)" d="M.398 0 0 .309l.03.05 8.686 14.418 1.188-.819c.84-.62 1.654-1.29 2.438-2.015L.445.047Z" fill="#4d5a31"/>
                <g fill="#93d500">
                    <path transform="translate(42.827 59.998)" d="M.009.012.028.001V0l-.02.011ZM0 .018Z"/>
                    <path transform="translate(42.83 59.932)" d="M.025.061.139.004.137 0 .025.067ZM0 .081.006.078Z"/>
                    <path transform="translate(42.806 59.98)" d="M.02.035h.001L0 0ZM.03.03.048.02l-.02.01ZM.017.035.012.038.018.036Z"/>
                    <path transform="translate(42.824 60.015)" d="M0 .001.003 0Z"/>
                    <path transform="translate(42.815 59.932)" d="M.015.081.01.083.02.077ZM.04.068.153.004.04.068ZM.153.004.151 0ZM0 .09h.001Z"/>
                    <path transform="translate(42.816 60.02)" d="M.003 0 0 .002.003 0Z"/>
                    <path transform="translate(9.127 11.999)" d="m33.544 47.444-8.402-13.942-.5.279-.512.257a11.513 11.513 0 0 1-4.932 1.116 11.46 11.46 0 0 1-3.28-.48l-.54-.189-.54-.191-6.414 15.578.047.017.05.019.012.006 1.232.47a28.534 28.534 0 0 0 6.013 1.416l.698.076.113.01.56.046.19.012.49.028.3.012.39.013.696.009c1.577 0 3.15-.131 4.704-.392l.08-.012.493-.09.286-.054.288-.06.481-.106.087-.02a28.482 28.482 0 0 0 6.798-2.534l.417-.23.848-.477-.014-.04.021.036.027-.016.112-.067Zm-21.6-32.673.397-.309-.03-.05L3.627 0l-1.19.82A28.36 28.36 0 0 0 0 2.833l11.897 11.891Z"/>
                </g>
                <path transform="translate(0 7.335)" d="m8.302 8.282-.79.826a27.9 27.9 0 0 0-2.407 2.983l-.104.148-.242.357-.245.375-.09.137A28.271 28.271 0 0 0 .026 27.18l-.015.571-.01.572h16.848l.028-.572.031-.57a11.433 11.433 0 0 1 2.541-6.137c.114-.147.255-.284.384-.425.128-.141.247-.288.383-.424ZM43.066 4.1l-.07-.042-.447-.265-.261-.149-.263-.146-.457-.247-.072-.038a29.483 29.483 0 0 0-3.039-1.37l-.08-.032-.685-.247A28.43 28.43 0 0 0 32.014.217l-.237-.032-.237-.027-.457-.05-.128-.01-.544-.047-.686-.041-.248-.01v16.89c.867.09 1.726.274 2.559.557L44.47 5.023c-.46-.321-.93-.629-1.408-.922Z" fill="#4d5a31"/>
                <path transform="translate(13.713 7.316)" d="m.303 4.557-.295-.49ZM0 4.066l.002.003ZM14.059.012l-.571.011c-1.192.048-2.382.17-3.562.368L9.85.404l-.495.09-.285.053-.29.061-.48.105-.088.02a28.506 28.506 0 0 0-6.798 2.535l-1.411.797.001.003L8.7 18.506l.499-.278a11.456 11.456 0 0 1 4.283-1.315l.571-.046.572-.02V0c-.19 0-.381.007-.571.011Z" fill="#6ba43a"/>
                <path transform="translate(39.214 19.52)" d="m17.437 14.745-.028-.454-.014-.227-.044-.534-.012-.138-.063-.596-.005-.048-.003-.023-.086-.642a28.311 28.311 0 0 0-.874-4.004l-.008-.025-.187-.607-.026-.08-.183-.545-.051-.147-.171-.47-.086-.223-.152-.388-.124-.305-.126-.3-.168-.383-.097-.216-.213-.456-.066-.138-.256-.518-.037-.071-.298-.571-.01-.02A28.421 28.421 0 0 0 12.435 0L0 12.437c.28.829.467 1.687.557 2.558h16.889l-.01-.25Z" fill="#4d5a31"/>
                <path transform="translate(36.471 35.657)" d="m3.366 0-.028.572-.031.571A11.417 11.417 0 0 1 .767 7.28c-.115.146-.256.283-.384.424-.129.141-.247.288-.383.424l11.913 11.913c.135-.135.263-.275.394-.413l.394-.413a28.442 28.442 0 0 0 2.414-2.992l.084-.122.262-.385.226-.345.114-.169a28.265 28.265 0 0 0 4.39-14.06l.016-.57.01-.572H3.366Z" fill="#6ba43a"/>
                <path transform="translate(20.451)" d="M41.237 2.312a7.893 7.893 0 0 0-11.162 0c-2.459 2.458-2.95 6.134-1.485 9.086L11.397 28.59c-2.952-1.464-6.628-.973-9.086 1.486a7.896 7.896 0 0 0 0 11.162 7.896 7.896 0 0 0 11.163 0c2.458-2.459 2.95-6.134 1.485-9.087L32.152 14.96c2.952 1.464 6.627.973 9.085-1.485a7.891 7.891 0 0 0 .001-11.162Z" fill="#424143"/>
            </g>
        </g>
    </symbol>
</svg>
